X: 03063
T: NEVELL'S LONG BOW
C: Bob McQuillen Dec 76
B: Bob's Note Book 03 #63
%R: jig
%D:1976
Z: 2020 John Chambers <jc:trillian.mit.edu>
M: 6/8
L: 1/8
K: D
A \
| FAA fed | GBB gfe | ABA fed | f2d A2A |\
| FAA fed | GBB gfe | ABA fed | fdd d2 :|
|: f \
| aba afd | gfg ecA | fgf efe | ded cBA |\
| dcd ecA | fga afd | Bgf edc | edd d2 :|
%%begintext align
%% For Dick Nevell, with best
%% wishes always. By the way,
%% have you read his book "A TIme
%% to Dance"? It's
%% really superb. It's
%% required reading, you
%% know!
%%endtext

%%sep 1 1 500

%%sep 1 1 500

